X:1
T:Title
%%score { 1 | 2 }
L:1/8
M:3/2
K:Bb
V:1 treble nm="Grand Piano"
V:2 bass 
V:1
 z4 z4[Q:1/4=160] [B,D]2 [CE]2 | [DF]6 [FB]2 [Ec]2 [Ed]2 | [DB]8 [FA]2 G2 | F6 G2 E2 F2 | %4
[M:4/4] D8 |[M:2/4] D2 [CE]2 |[M:6/4] [DF]6 [DB]2 d2 c2 | B6- B2 [FA]2 G2 | F6 F2 [EG]2 [EA]2 | %9
[M:4/4] [DB]8 |] %10
V:2
 z4 z4 [B,,F,]2 [B,,F,]2 | [B,,B,]6 [D,B,]2 [F,B,]2 [F,A,]2 | [B,,B,]8 [D,B,]2 [E,B,E]2 | %3
 [F,B,D]6 [F,B,D]2 [F,B,C]2 [F,A,C]2 |[M:4/4] [B,,B,]8 |[M:2/4] [B,,F,B,]2 [B,,F,]2 | %6
[M:6/4] [B,,B,]6 [B,,F,]2 [F,A,F]2 [^F,A,E]2 | [G,B,D]6- [G,B,D]2 [D,B,]2 [E,B,E]2 | %8
 [F,B,D]6 [D,B,]2 [C,B,]2 [C,F,]2 |[M:4/4] [B,,F,]8 |] %10

